X:1
T:Sally's Connaughtman's Rambles
N:from the lilting of Sally Sloane
Z:Ian Hayden 2017
M:6/8
K:Dmaj
|:B>ee B>dd|BeB dBA|B>ee B>dd|BAB d2A|
B>ee B>dd|Bec dBA|d>BA GAB|AGE E2D||
B,DD GDD|EDE GDD|B,2D GAB|AGE E2D|
B,2D GDD|EDE GDD|B,2D GAB|AGE E3:|
